X:1
T:Loughran's #1* (r)
L:1/8
M:4/4
I:linebreak $
K:C
V:1 treble 
V:1
 ug[Q:1/8=360]d^c | BGA^F DG G2 | ABcA de^fg | (3ag^f ge fde^c | d=cAG Add^c | BGA^F DG G2 |$ %6
 ABcA de^fg | (3ag^f ge fdAf ||1 dcA^F G2 :|2 dcA^F G3 || B | de^fg a2 fa | gede d^c A2 |$ %13
 de^fg ad d2 | ^cde^f g2 fe | de^fg a2 fa | g^fde d^cAG |1 ^FEFG A2 BA | dcA^F G3 :|2$ %19
 ^FEFG A2 ^fe | dcA^F G2 DC || %21
